img/Shape-1.svg

<svg width="15" height="16" viewBox="0 0 15 16" fill="none" xmlns="http://www.w3.org/2000/svg">
<path fill-rule="evenodd" clip-rule="evenodd" d="M10.6172 10.499L14.0684 14.1387C14.3604 14.4463 14.3506 14.9375 14.0474 15.2334C13.9045 15.373 13.7163 15.4492 13.5181 15.4492C13.3086 15.4492 13.113 15.3652 12.9678 15.2119L9.49023 11.5449C8.50293 12.248 7.3479 12.6191 6.13599 12.6191C2.90771 12.6191 0.28125 9.95605 0.28125 6.68262C0.28125 3.40918 2.90771 0.746094 6.13599 0.746094C9.36426 0.746094 11.9907 3.40918 11.9907 6.68262C11.9907 8.08301 11.5044 9.42969 10.6172 10.499ZM10.4634 6.68262C10.4634 4.26367 8.52222 2.29492 6.13599 2.29492C3.74976 2.29492 1.80859 4.26367 1.80859 6.68262C1.80859 9.10254 3.74976 11.0703 6.13599 11.0703C8.52222 11.0703 10.4634 9.10254 10.4634 6.68262Z" fill="#BBC3CF"/>
</svg>

<svg width="15" height="16" fill="none" xmlns="http://www.w3.org/2000/svg"><path fill-rule="evenodd" clip-rule="evenodd" d="M10.617 10.499l3.451 3.64a.783.783 0 0 1-.02 1.094.754.754 0 0 1-1.08-.021L9.49 11.545a5.74 5.74 0 0 1-3.354 1.074C2.908 12.62.281 9.956.281 6.683.281 3.409 2.908.746 6.136.746c3.228 0 5.855 2.663 5.855 5.937a5.97 5.97 0 0 1-1.374 3.816zm-.154-3.816c0-2.42-1.94-4.388-4.327-4.388-2.386 0-4.327 1.969-4.327 4.388 0 2.42 1.94 4.387 4.327 4.387 2.386 0 4.327-1.967 4.327-4.387z" fill="#BBC3CF"/></svg>
